X: 20374
T: GIE ME A LASS WI' A LUMP O' LAND.
O: Scottish air.
Q: "Lively."
%R: jig
B: W. Hamilton "Universal Tune-Book" Vol. 2 Glasgow 1846 p.37 #4
S: http://s3-eu-west-1.amazonaws.com/itma.dl.printmaterial/book_pdfs/hamiltonvol2web.pdf
Z: 2016 John Chambers <jc:trillian.mit.edu>
M: 6/8
L: 1/8
K: D
% - - - - - - - - - - - - - - - - - - - - - - - - -
[|\
d>ed d>cB | c2d e2e | d>ed (dc)B | (A<B)d A<FD |\
d2d (dc)B | c<cd e2e | d>ed (dc)B | (A>B)d A<FD |
E>FE B2E | ccE B2E | E>FE B2E | ccE AFD |\
E>FE B2E | c2E B2E | E>FE B2E | Bcd (AF)D |]
% - - - - - - - - - - - - - - - - - - - - - - - - -
